X: 1
T: The Wild Irishman
R: reel
M: 4/4
L: 1/8
K: Dmaj
|:d2fd gefe|dfed cdec|d2fd gefd|g2fe dcBc|
d2fd gefe|dfed cdeg|~f3d ~g3e|cdec dcdf:|
|:edcB ABcd|eA~A2 eAfA|edcB A2de|fgfe dcdf|
edcB ABcd|eA (3AAA eAfA|edcB ~A3e|fgfe d3c:|


Tune 1027	Setting 14251

